recipes/groupme/icon.svg

<svg height="80" viewBox="0 0 80 80" width="80" xmlns="http://www.w3.org/2000/svg"><g fill="#00a0e9" fill-rule="evenodd" transform="translate(5)"><path d="m32.167247 21.928188h5.310871v5.311812h-5.310871z"/><path d="m54.4220235.03134118h-39.1974588c-8.38061176 0-15.17402352 6.79397647-15.17402352 15.17402352v39.1978353c0 8.3797647 6.79331764 15.1737412 15.17402352 15.1737412h13.0463059l6.4850823 10.3919059 6.4865883-10.3919059h13.1793882c8.379953 0 15.1744941-6.7939765 15.1744941-15.1737412v-39.1979294c.0000941-8.38004707-6.794447-15.17392942-15.1744-15.17392942zm-33.6077176 27.20856472h5.6243765v-5.3118118h-5.6243765v-5.7278117h5.6243765v-5.6242824h5.7285647v5.6242824h5.3108705v-5.6242824h5.7282824v5.6242824h5.6237176v5.7278117h-5.6237176v5.3118118h5.6237176v5.7274353h-5.6237176v5.6244706h-5.7282824v-5.6244706h-5.3108705v5.6244706h-5.7285647v-5.6244706h-5.6243765zm40.2857412 17.5299765s-7.5617883 14.2418823-25.5161412 14.2418823c-.2485647 0-.4937412-.0031059-.7380706-.0075294-.2438588.0044235-.4894118.0075294-.7377882.0075294-17.9538824 0-25.51567063-14.2418823-25.51567063-14.2418823s-.48941176-.9274353-.48941176-1.9272471c-.03087059-.7215059.32197647-1.7558588 1.248-2.3650824.51501176-.338447 1.00178819-.5059764 1.45317649-.5583058 2.1618823-.2293647 3.4147764 1.1783529 4.4450823 2.7858823 1.1378824 1.7737412 7.7021177 9.5452235 19.5964236 9.8426353 11.8948705-.2974118 18.4593882-8.0688941 19.5968941-9.8426353 1.0304941-1.6075294 2.3286588-3.0176 4.4453647-2.7858823.4512941.0523294.938447.2198588 1.4529882.5583058.9264941.6092236 1.2869647 1.4674824 1.2544 2.3643295-.0722823 1.3197176-.495247 1.928-.495247 1.928z"/></g></svg>

<?xml version="1.0" encoding="UTF-8" standalone="no"?>
<svg width="80px" height="80px" viewBox="0 0 80 80" version="1.1" xmlns="http://www.w3.org/2000/svg" xmlns:xlink="http://www.w3.org/1999/xlink">
    <!-- Generator: Sketch 3.7.2 (28276) - http://www.bohemiancoding.com/sketch -->
    <title>groupme</title>
    <desc>Created with Sketch.</desc>
    <defs></defs>
    <g id="icons" stroke="none" stroke-width="1" fill="none" fill-rule="evenodd">
        <g id="groupme" fill="#00A0E9">
            <g transform="translate(5.000000, 0.000000)" id="Page-1">
                <g>
                    <g id="PEO-groupme-0">
                        <g id="Group">
                            <rect id="Rectangle-path" x="32.1672471" y="21.9281882" width="5.31087059" height="5.31181176"></rect>
                            <path d="M54.4220235,0.0313411765 L15.2245647,0.0313411765 C6.84395294,0.0313411765 0.0505411765,6.82531765 0.0505411765,15.2053647 L0.0505411765,54.4032 C0.0505411765,62.7829647 6.84385882,69.5769412 15.2245647,69.5769412 L28.2708706,69.5769412 L34.7559529,79.9688471 L41.2425412,69.5769412 L54.4219294,69.5769412 C62.8018824,69.5769412 69.5964235,62.7829647 69.5964235,54.4032 L69.5964235,15.2052706 C69.5965176,6.82522353 62.8019765,0.0313411765 54.4220235,0.0313411765 L54.4220235,0.0313411765 L54.4220235,0.0313411765 Z M20.8143059,27.2399059 L26.4386824,27.2399059 L26.4386824,21.9280941 L20.8143059,21.9280941 L20.8143059,16.2002824 L26.4386824,16.2002824 L26.4386824,10.576 L32.1672471,10.576 L32.1672471,16.2002824 L37.4781176,16.2002824 L37.4781176,10.576 L43.2064,10.576 L43.2064,16.2002824 L48.8301176,16.2002824 L48.8301176,21.9280941 L43.2064,21.9280941 L43.2064,27.2399059 L48.8301176,27.2399059 L48.8301176,32.9673412 L43.2064,32.9673412 L43.2064,38.5918118 L37.4781176,38.5918118 L37.4781176,32.9673412 L32.1672471,32.9673412 L32.1672471,38.5918118 L26.4386824,38.5918118 L26.4386824,32.9673412 L20.8143059,32.9673412 L20.8143059,27.2399059 L20.8143059,27.2399059 L20.8143059,27.2399059 Z M61.1000471,44.7698824 C61.1000471,44.7698824 53.5382588,59.0117647 35.5839059,59.0117647 C35.3353412,59.0117647 35.0901647,59.0086588 34.8458353,59.0042353 C34.6019765,59.0086588 34.3564235,59.0117647 34.1080471,59.0117647 C16.1541647,59.0117647 8.59237647,44.7698824 8.59237647,44.7698824 C8.59237647,44.7698824 8.10296471,43.8424471 8.10296471,42.8426353 C8.07209412,42.1211294 8.42494118,41.0867765 9.35096471,40.4775529 C9.86597647,40.1391059 10.3527529,39.9715765 10.8041412,39.9192471 C12.9660235,39.6898824 14.2189176,41.0976 15.2492235,42.7051294 C16.3871059,44.4788706 22.9513412,52.2503529 34.8456471,52.5477647 C46.7405176,52.2503529 53.3050353,44.4788706 54.4425412,42.7051294 C55.4730353,41.0976 56.7712,39.6875294 58.8879059,39.9192471 C59.3392,39.9715765 59.8263529,40.1391059 60.3408941,40.4775529 C61.2673882,41.0867765 61.6278588,41.9450353 61.5952941,42.8418824 C61.5230118,44.1616 61.1000471,44.7698824 61.1000471,44.7698824 L61.1000471,44.7698824 L61.1000471,44.7698824 Z" id="Shape"></path>
                        </g>
                    </g>
                </g>
            </g>
        </g>
    </g>
</svg>
